T: Dub, The
M: 4/4
L: 1/8
K: Ador
A2eA fg~g2|gedB GABG|A2eA fg~g2|gedg eAAG|A2eA fg~g2|gedB GABc|dBcA BGAF|GEDG EAAG:|:A3B cBAG|EGdB GABG|A3B cBAG|EGdB BAAG|A3B cBAG|EGDE ~G3GB|dBcA BGAF|GEDG EAAG:|
